X: 51
T:Old Mother Oxford - Stretton on Fosse
M:4/4
N:Tune as played for Grand Union Morris
L:1/8
Q:160
S:OY (AB)4
K:G
"A" GABc d2 c2  | B2 A2 G4 |  GABc d2 g2  | f2 g2 a4 | g3 a b2 a2 | g2 e
2 d2 ef  | g2 d2 c2 B2 | A4 G4 ||
"B" Bc d2 Bc d2 | Bc d2 d2 cB | c2 e2 c2 e2 | c2 e2 e3 f |  g3 a b2 a2 |
 g2 e
2 d2 ef  | g2 d2 c2 B2 | A4 G4 ||
